X: 7
T: Big Scioty
S:http/vclvm54.isis.unc.edu/mediawiki/index.php/Big_Scioty 2011-5-12
M:4/4
L:1/8
K:G
|: DE |\
GABG AGED | EDEF G2 ((3D/E/F/ | G)ABG AGED | EDEF G2 {DEF}G2 |
GFGA Bcd2 | e3f e2d2 | BAGB AGEG | EG2F G2 :|
|: ze |\
gfga gedg | egab a3e | gfga gedc | Bdef e3(e |
e)fgf edBd | Be2f e2A2 | BAGB AGED | D{EF}G2F G2 :|

%%sep 5 1 500

